;Generated by Cura LulzBot Edition GCodeWriter Version: 3.6.20
;FLAVOR:Marlin
;TIME:1502
;Filament used: 0.714026m
;Layer height: 0.25
;Generated with Cura_SteamEngine 3.6.20
M82 ;absolute extrusion mode
;This G-Code has been generated specifically for the LulzBot TAZ 6 with Aerosturder
M73 P0 ; clear GLCD progress bar
M75 ; start GLCD timer
G26 ; clear potential 'probe fail' condition
M107 ; disable fans
M420 S0 ; disable leveling matrix
G90 ; absolute positioning
M82 ; set extruder to absolute mode
G92 E0 ; set extruder position to 0
M140 S60.0 ; start bed heating up
G28 XY ; home X and Y
G1 X-19 Y258 F1000 ; move to safe homing position
M109 R140 ; soften filament before homing Z
G28 Z ; home Z
G1 E-15 F100 ; retract filament
M109 R140 ; wait for extruder to reach wiping temp
G1 X-15 Y100 F3000 ; move above wiper pad
G1 Z1 ; push nozzle into wiper
G1 X-17 Y95 F1000 ; slow wipe
G1 X-17 Y90 F1000 ; slow wipe
G1 X-17 Y85 F1000 ; slow wipe
G1 X-15 Y90 F1000 ; slow wipe
G1 X-17 Y80 F1000 ; slow wipe
G1 X-15 Y95 F1000 ; slow wipe
G1 X-17 Y75 F2000 ; fast wipe
G1 X-15 Y65 F2000 ; fast wipe
G1 X-17 Y70 F2000 ; fast wipe
G1 X-15 Y60 F2000 ; fast wipe
G1 X-17 Y55 F2000 ; fast wipe
G1 X-15 Y50 F2000 ; fast wipe
G1 X-17 Y40 F2000 ; fast wipe
G1 X-15 Y45 F2000 ; fast wipe
G1 X-17 Y35 F2000 ; fast wipe
G1 X-15 Y40 F2000 ; fast wipe
G1 X-17 Y70 F2000 ; fast wipe
G1 X-15 Y30 Z2 F2000 ; fast wipe
G1 X-17 Y35 F2000 ; fast wipe
G1 X-15 Y25 F2000 ; fast wipe
G1 X-17 Y30 F2000 ; fast wipe
G1 X-15 Y25 Z1.5 F1000 ; slow wipe
G1 X-17 Y23 F1000 ; slow wipe
G1 Z10 ; raise extruder
M109 R140 ; wait for extruder to reach probe temp
G1 X-9 Y-9 ; move above first probe point
M204 S100 ; set probing acceleration
G29          ; start auto-leveling sequence
M420 S1      ; enable leveling matrix
M425 Z       ; use measured Z backlash for compensation
M425 Z F0    ; turn off measured Z backlash compensation. (if activated in the quality settings, this command will automatically be ignored)
M204 S500 ; restore standard acceleration
G1 X0 Y0 Z15 F5000 ; move up off last probe point
G4 S1 ; pause
M400 ; wait for moves to finish
M117 Heating... ; progress indicator message on LCD
M109 R210  ; wait for extruder to reach printing temp
M190 R60.0 ; wait for bed to reach printing temp
G1 Z2 E0 F75 ; prime tiny bit of filament into the nozzle
M117 TAZ 6 Printing... ; progress indicator message on LCD

M221 S100 T0
G92 E0
G1 F600 E-1
;LAYER_COUNT:13
;LAYER:0
M107
;MESH:
G0 F2625 X114.862 Y131.782 Z0.425
;TYPE:WALL-INNER
G1 F600 E0
G1 F900 X114.66 Y131.49 E0.01183
G1 X114.429 Y131.219 E0.02369
G1 X114.169 Y130.975 E0.03557
G1 X113.886 Y130.763 E0.04734
G1 X113.583 Y130.582 E0.0591
G1 X113.26 Y130.433 E0.07095
G1 X112.922 Y130.321 E0.08281
G1 X112.576 Y130.246 E0.0946
G1 X112.224 Y130.208 E0.1064
G1 X111.869 Y130.208 E0.11822
G1 X111.514 Y130.247 E0.13012
G1 X111.171 Y130.323 E0.14182
G1 X110.854 Y130.427 E0.15293
G1 X109.835 Y130.89 E0.19022
G1 X108.873 Y131.462 E0.2275
G1 X107.978 Y132.134 E0.26478
G1 X107.162 Y132.9 E0.30206
G1 X106.434 Y133.75 E0.33934
G1 X105.803 Y134.673 E0.37658
G1 X105.275 Y135.662 E0.41393
G1 X104.859 Y136.7 E0.45118
G1 X104.558 Y137.779 E0.48849
G1 X104.375 Y138.883 E0.52577
G1 X104.315 Y140 E0.56303
G1 X104.375 Y141.117 E0.60029
G1 X104.558 Y142.221 E0.63757
G1 X104.859 Y143.3 E0.67488
G1 X105.275 Y144.338 E0.71213
G1 X105.803 Y145.327 E0.74948
G1 X106.434 Y146.25 E0.78672
G1 X107.162 Y147.1 E0.824
G1 X107.978 Y147.866 E0.86128
G1 X108.873 Y148.538 E0.89856
G1 X109.835 Y149.11 E0.93584
G1 X110.853 Y149.572 E0.97308
G1 X111.191 Y149.684 E0.98494
G1 X111.539 Y149.758 E0.99679
G1 X111.892 Y149.794 E1.00861
G1 X112.247 Y149.792 E1.02044
G1 X112.599 Y149.752 E1.03224
G1 X112.946 Y149.674 E1.04409
G1 X113.283 Y149.558 E1.05596
G1 X113.603 Y149.409 E1.06772
G1 X113.906 Y149.225 E1.07952
G1 X114.19 Y149.008 E1.09143
G1 X114.446 Y148.763 E1.10323
G1 X114.675 Y148.493 E1.11503
G1 X114.874 Y148.199 E1.12685
G1 X115.04 Y147.884 E1.13871
G1 X115.17 Y147.555 E1.1505
G1 X115.266 Y147.212 E1.16236
G1 X115.323 Y146.861 E1.17421
G1 X115.341 Y146.528 E1.18531
G1 X115.34 Y133.452 E1.62088
G1 X115.319 Y133.115 E1.63213
G1 X115.259 Y132.765 E1.64396
G1 X115.163 Y132.424 E1.65576
G1 X115.029 Y132.095 E1.66759
G1 X114.862 Y131.782 E1.67941
G0 F2625 X114.947 Y131.73
G0 X177.271 Y151.88
G0 X177.341 Y151.95
G1 F900 X114.612 Y151.95 E3.76893
G1 X113.298 Y151.879 E3.81277
G1 X112.027 Y151.67 E3.85567
G1 X110.767 Y151.32 E3.89923
G1 X109.579 Y150.847 E3.94183
G1 X108.431 Y150.239 E3.9851
G1 X107.363 Y149.514 E4.0281
G1 X106.368 Y148.669 E4.07158
G1 X105.481 Y147.733 E4.11453
G1 X104.701 Y146.707 E4.15747
G1 X104.036 Y145.603 E4.2004
G1 X103.492 Y144.424 E4.24365
G1 X103.076 Y143.191 E4.28699
G1 X102.8 Y141.939 E4.3297
G1 X102.659 Y140.644 E4.37309
G1 X102.659 Y139.356 E4.416
G1 X102.8 Y138.061 E4.45939
G1 X103.076 Y136.809 E4.50209
G1 X103.492 Y135.576 E4.54544
G1 X104.036 Y134.397 E4.58869
G1 X104.701 Y133.293 E4.63162
G1 X105.481 Y132.267 E4.67455
G1 X106.368 Y131.331 E4.71751
G1 X107.363 Y130.486 E4.76099
G1 X108.431 Y129.761 E4.80399
G1 X109.579 Y129.153 E4.84726
G1 X110.767 Y128.68 E4.88986
G1 X112.027 Y128.33 E4.93342
G1 X113.298 Y128.121 E4.97632
G1 X114.612 Y128.05 E5.02016
G1 X177.341 Y128.05 E7.10968
G1 X177.341 Y151.95 E7.9058
G0 F2625 X177.841 Y152.45
;TYPE:WALL-OUTER
G1 F900 X114.604 Y152.45 E10.01225
G1 X113.245 Y152.377 E10.05758
G1 X111.913 Y152.158 E10.10255
G1 X110.614 Y151.797 E10.14746
G1 X109.364 Y151.299 E10.19228
G1 X108.171 Y150.667 E10.23725
G1 X107.061 Y149.914 E10.28193
G1 X106.024 Y149.033 E10.32725
G1 X105.102 Y148.061 E10.37188
G1 X104.286 Y146.987 E10.41681
G1 X103.592 Y145.834 E10.46164
G1 X103.026 Y144.609 E10.50659
G1 X102.595 Y143.329 E10.55158
G1 X102.306 Y142.019 E10.59626
G1 X102.159 Y140.67 E10.64146
G1 X102.159 Y139.33 E10.6861
G1 X102.306 Y137.981 E10.7313
G1 X102.595 Y136.671 E10.77599
G1 X103.026 Y135.391 E10.82098
G1 X103.592 Y134.166 E10.86593
G1 X104.286 Y133.013 E10.91075
G1 X105.102 Y131.939 E10.95568
G1 X106.024 Y130.967 E11.00031
G1 X107.061 Y130.086 E11.04564
G1 X108.171 Y129.333 E11.09032
G1 X109.364 Y128.701 E11.13529
G1 X110.614 Y128.203 E11.18011
G1 X111.913 Y127.842 E11.22502
G1 X113.245 Y127.623 E11.26998
G1 X114.604 Y127.55 E11.31532
G1 X177.841 Y127.55 E13.42176
G1 X177.841 Y152.45 E14.25119
G0 F2625 X177.591 Y152.45
G0 X177.271 Y151.88
G0 X111.197 Y149.787
G0 X111.322 Y149.201
G1 F900 X111.616 Y149.263 E14.2612
G1 X111.916 Y149.294 E14.27125
G1 X112.217 Y149.292 E14.28127
G1 X112.516 Y149.258 E14.2913
G1 X112.81 Y149.192 E14.30134
G1 X113.095 Y149.094 E14.31137
G1 X113.367 Y148.967 E14.32137
G1 X113.624 Y148.811 E14.33139
G1 X113.864 Y148.628 E14.34144
G1 X114.081 Y148.42 E14.35145
G1 X114.276 Y148.19 E14.3615
G1 X114.445 Y147.941 E14.37152
G1 X114.585 Y147.675 E14.38154
G1 X114.696 Y147.395 E14.39157
G1 X114.777 Y147.105 E14.4016
G1 X114.825 Y146.807 E14.41165
G1 X114.841 Y146.514 E14.42143
G1 X114.84 Y133.467 E14.85603
G1 X114.822 Y133.173 E14.86584
G1 X114.771 Y132.876 E14.87588
G1 X114.689 Y132.587 E14.88588
G1 X114.576 Y132.308 E14.89591
G1 X114.434 Y132.043 E14.90593
G1 X114.263 Y131.795 E14.91596
G1 X114.067 Y131.565 E14.92603
G1 X113.847 Y131.359 E14.93607
G1 X113.607 Y131.179 E14.94606
G1 X113.349 Y131.025 E14.95607
G1 X113.076 Y130.899 E14.96608
G1 X112.79 Y130.804 E14.97612
G1 X112.496 Y130.74 E14.98614
G1 X112.197 Y130.708 E14.99616
G1 X111.896 Y130.708 E15.00619
G1 X111.596 Y130.741 E15.01624
G1 X111.304 Y130.806 E15.02621
G1 X111.036 Y130.894 E15.0356
G1 X110.067 Y131.334 E15.07105
G1 X109.152 Y131.878 E15.10651
G1 X108.3 Y132.517 E15.14199
G1 X107.524 Y133.246 E15.17745
G1 X106.831 Y134.055 E15.21293
G1 X106.231 Y134.933 E15.24836
G1 X105.729 Y135.873 E15.28385
G1 X105.333 Y136.861 E15.31931
G1 X105.047 Y137.887 E15.35479
G1 X104.873 Y138.937 E15.39024
G1 X104.816 Y140 E15.4257
G1 X104.873 Y141.063 E15.46116
G1 X105.047 Y142.113 E15.49662
G1 X105.333 Y143.139 E15.53209
G1 X105.729 Y144.127 E15.56755
G1 X106.231 Y145.067 E15.60305
G1 X106.831 Y145.945 E15.63847
G1 X107.524 Y146.754 E15.67395
G1 X108.3 Y147.483 E15.70942
G1 X109.152 Y148.122 E15.7449
G1 X110.067 Y148.666 E15.78035
G1 X111.036 Y149.106 E15.8158
G1 X111.322 Y149.201 E15.82584
G0 F2625 X111.567 Y149.252
G0 X111.463 Y150.242
;TYPE:SKIN
G1 F900 X111.868 Y150.284 E15.83941
G1 X112.276 Y150.282 E15.853
G1 X112.681 Y150.236 E15.86657
G1 X113.08 Y150.146 E15.8802
G1 X113.467 Y150.013 E15.89383
G1 X113.834 Y149.842 E15.90732
G1 X114.183 Y149.63 E15.92092
G1 X114.509 Y149.381 E15.93458
G1 X114.803 Y149.1 E15.94813
G1 X115.065 Y148.789 E15.96168
G1 X115.295 Y148.452 E15.97527
G1 X115.486 Y148.089 E15.98893
G1 X115.635 Y147.712 E16.00243
G1 X115.746 Y147.318 E16.01607
G1 X115.811 Y146.914 E16.0297
G1 X115.831 Y146.541 E16.04214
G1 X115.83 Y133.437 E16.47864
G1 X115.807 Y133.058 E16.49129
G1 X115.737 Y132.657 E16.50485
G1 X115.627 Y132.265 E16.51841
G1 X115.474 Y131.887 E16.53199
G1 X115.281 Y131.527 E16.5456
G1 X115.048 Y131.191 E16.55922
G1 X114.784 Y130.88 E16.57281
G1 X114.484 Y130.599 E16.5865
G1 X114.159 Y130.355 E16.60004
G1 X113.812 Y130.148 E16.6135
G1 X113.441 Y129.977 E16.6271
G1 X113.051 Y129.847 E16.6408
G1 X112.654 Y129.762 E16.65432
G1 X112.25 Y129.718 E16.66786
G1 X111.842 Y129.718 E16.68145
G1 X111.434 Y129.763 E16.69512
G1 X111.041 Y129.85 E16.70853
G1 X110.676 Y129.97 E16.72133
G1 X109.608 Y130.455 E16.7604
G1 X108.6 Y131.054 E16.79946
G1 X107.662 Y131.758 E16.83853
G1 X106.807 Y132.561 E16.8776
G1 X106.044 Y133.452 E16.91667
G1 X105.383 Y134.418 E16.95566
G1 X104.83 Y135.455 E16.99481
G1 X104.394 Y136.543 E17.03385
G1 X104.079 Y137.673 E17.07293
G1 X103.887 Y138.83 E17.112
G1 X103.825 Y140 E17.15102
G1 X103.887 Y141.17 E17.19005
G1 X104.079 Y142.327 E17.22912
G1 X104.394 Y143.457 E17.26819
G1 X104.83 Y144.545 E17.30724
G1 X105.383 Y145.582 E17.34639
G1 X106.044 Y146.548 E17.38538
G1 X106.807 Y147.439 E17.42445
G1 X107.662 Y148.242 E17.46352
G1 X108.6 Y148.946 E17.50259
G1 X109.608 Y149.545 E17.54165
G1 X110.674 Y150.029 E17.58064
G1 X111.062 Y150.158 E17.59426
G1 X111.463 Y150.242 E17.60791
G0 F2625 X110.922 Y150.855
G1 F900 X109.786 Y150.403 E17.64864
G1 X108.689 Y149.821 E17.69
G1 X107.66 Y149.123 E17.73142
G1 X106.7 Y148.307 E17.77339
G1 X105.855 Y147.417 E17.81427
G1 X105.11 Y146.437 E17.85528
G1 X104.468 Y145.371 E17.89673
G1 X103.948 Y144.242 E17.93813
G1 X103.548 Y143.058 E17.97976
G1 X103.286 Y141.87 E18.02028
G1 X103.149 Y140.609 E18.06254
G1 X103.149 Y139.391 E18.10311
G1 X103.286 Y138.13 E18.14536
G1 X103.548 Y136.942 E18.18588
G1 X103.948 Y135.758 E18.22751
G1 X104.468 Y134.629 E18.26892
G1 X105.11 Y133.563 E18.31037
G1 X105.855 Y132.583 E18.35137
G1 X106.7 Y131.693 E18.39225
G1 X107.66 Y130.877 E18.43422
G1 X108.689 Y130.179 E18.47564
G1 X109.786 Y129.597 E18.51701
G1 X110.922 Y129.145 E18.55773
G1 X112.126 Y128.811 E18.59935
G1 X113.351 Y128.609 E18.64071
G1 X114.638 Y128.54 E18.68364
G1 X176.851 Y128.54 E20.75598
G1 X176.851 Y151.46 E21.51945
G1 X114.638 Y151.46 E23.59179
G1 X113.351 Y151.391 E23.63472
G1 X112.126 Y151.189 E23.67608
G1 X110.922 Y150.855 E23.7177
G0 F2625 X108.215 Y149.227
G1 F900 X105.293 Y146.306 E23.85532
G1 X105.205 Y146.218
G0 F2625 X104.687 Y144.992
G1 F900 X104.149 Y143.747 E23.8813
G1 X103.532 Y141.009 E23.93505
G1 X103.621 Y138.27 E23.98753
G1 X104.427 Y135.539 E24.04206
G1 X105.73 Y133.307 E24.09155
G1 X107.452 Y131.493 E24.13945
G1 X109.584 Y130.09 E24.18832
G1 X111.673 Y129.351 E24.23076
G1 X113.087 Y129.351 E24.25784
G0 F2625 X113.29 Y128.846
G1 F900 X135.678 Y151.234 E25.31249
G0 F2625 X134.971 Y151.234
G1 F900 X115.78 Y132.044 E26.21651
G0 F2625 X116.023 Y132.994
G1 F900 X134.264 Y151.234 E27.07579
G0 F2625 X133.556 Y151.234
G1 F900 X116.054 Y133.732 E27.90027
G0 F2625 X116.054 Y134.439
G1 F900 X132.849 Y151.234 E28.69145
G0 F2625 X132.142 Y151.234
G1 F900 X116.054 Y135.146 E29.44932
G0 F2625 X116.054 Y135.853
G1 F900 X131.435 Y151.234 E30.17389
G0 F2625 X130.728 Y151.234
G1 F900 X116.054 Y136.56 E30.86515
G0 F2625 X116.054 Y137.267
G1 F900 X130.021 Y151.234 E31.52311
G0 F2625 X129.314 Y151.234
G1 F900 X116.054 Y137.974 E32.14776
G0 F2625 X116.054 Y138.682
G1 F900 X128.607 Y151.234 E32.73908
G0 F2625 X127.9 Y151.234
G1 F900 X116.054 Y139.389 E33.2971
G0 F2625 X116.055 Y140.096
G1 F900 X127.192 Y151.234 E33.82176
G0 F2625 X126.485 Y151.234
G1 F900 X116.055 Y140.804 E34.3131
G0 F2625 X116.055 Y141.511
G1 F900 X125.778 Y151.234 E34.77113
G0 F2625 X125.071 Y151.234
G1 F900 X116.055 Y142.218 E35.19586
G0 F2625 X116.055 Y142.925
G1 F900 X124.364 Y151.234 E35.58728
G0 F2625 X123.657 Y151.234
G1 F900 X116.055 Y143.632 E35.94539
G0 F2625 X116.055 Y144.339
G1 F900 X122.95 Y151.234 E36.2702
G0 F2625 X122.243 Y151.234
G1 F900 X116.055 Y145.046 E36.56171
G0 F2625 X116.055 Y145.753
G1 F900 X121.536 Y151.234 E36.8199
G0 F2625 X120.828 Y151.234
G1 F900 X116.055 Y146.46 E37.04477
G0 F2625 X116.005 Y147.118
G1 F900 X120.121 Y151.234 E37.23867
G0 F2625 X119.414 Y151.234
G1 F900 X115.873 Y147.693 E37.40548
G0 F2625 X115.678 Y148.205
G1 F900 X118.707 Y151.234 E37.54817
G0 F2625 X118 Y151.234
G1 F900 X115.424 Y148.658 E37.66952
G0 F2625 X115.124 Y149.065
G1 F900 X117.293 Y151.234 E37.7717
G0 F2625 X116.586 Y151.234
G1 F900 X114.782 Y149.43 E37.85668
G0 F2625 X114.395 Y149.751
G1 F900 X115.879 Y151.234 E37.92656
G0 F2625 X115.172 Y151.234
G1 F900 X113.964 Y150.026 E37.98347
G0 F2625 X113.477 Y150.246
G1 F900 X114.454 Y151.223 E38.0295
G0 F2625 X113.707 Y151.183
G1 F900 X112.932 Y150.409 E38.06598
G0 F2625 X112.611 Y150.795
G1 F900 X111.813 Y150.704 E38.08777
G1 X109.623 Y149.928 E38.15081
G0 F2625 X109.344 Y149.649
G0 X112.249 Y149.831
G0 X112.956 Y149.712
G0 X113.928 Y149.258
G0 X114.475 Y148.79
G0 X114.908 Y148.219
G0 X115.305 Y147.22
G0 X115.38 Y146.529
G0 X115.358 Y133.111
G0 X115.27 Y132.715
G0 X113.952 Y128.801
G1 F900 X136.385 Y151.234 E39.20758
G0 F2625 X137.092 Y151.234
G1 F900 X114.624 Y128.766 E40.266
G0 F2625 X115.329 Y128.764
G1 F900 X137.799 Y151.234 E41.32452
G0 F2625 X138.506 Y151.234
G1 F900 X116.036 Y128.764 E42.38303
G0 F2625 X116.744 Y128.764
G1 F900 X139.213 Y151.234 E43.44153
G0 F2625 X139.92 Y151.234
G1 F900 X117.451 Y128.764 E44.50002
G0 F2625 X118.158 Y128.764
G1 F900 X140.627 Y151.234 E45.55851
G0 F2625 X141.335 Y151.234
G1 F900 X118.865 Y128.764 E46.61703
G0 F2625 X119.572 Y128.764
G1 F900 X142.042 Y151.234 E47.67554
G0 F2625 X142.749 Y151.234
G1 F900 X120.279 Y128.764 E48.73406
G0 F2625 X120.986 Y128.764
G1 F900 X143.456 Y151.234 E49.79257
G0 F2625 X144.163 Y151.234
G1 F900 X121.693 Y128.764 E50.85109
G0 F2625 X122.4 Y128.764
G1 F900 X144.87 Y151.234 E51.90961
G0 F2625 X145.577 Y151.234
G1 F900 X123.107 Y128.764 E52.96812
G0 F2625 X123.815 Y128.764
G1 F900 X146.284 Y151.234 E54.02661
G0 F2625 X146.991 Y151.234
G1 F900 X124.522 Y128.764 E55.08511
G0 F2625 X125.229 Y128.764
G1 F900 X147.699 Y151.234 E56.14362
G0 F2625 X148.406 Y151.234
G1 F900 X125.936 Y128.764 E57.20214
G0 F2625 X126.643 Y128.764
G1 F900 X149.113 Y151.234 E58.26065
G0 F2625 X149.82 Y151.234
G1 F900 X127.35 Y128.764 E59.31917
G0 F2625 X128.057 Y128.764
G1 F900 X150.527 Y151.234 E60.37769
G0 F2625 X151.234 Y151.234
G1 F900 X128.764 Y128.764 E61.4362
G0 F2625 X129.471 Y128.764
G1 F900 X151.941 Y151.234 E62.49472
G0 F2625 X152.648 Y151.234
G1 F900 X130.179 Y128.764 E63.55321
G0 F2625 X130.886 Y128.764
G1 F900 X153.355 Y151.234 E64.6117
G0 F2625 X154.063 Y151.234
G1 F900 X131.593 Y128.764 E65.67022
G0 F2625 X132.3 Y128.764
G1 F900 X154.77 Y151.234 E66.72874
G0 F2625 X155.477 Y151.234
G1 F900 X133.007 Y128.764 E67.78725
G0 F2625 X133.714 Y128.764
G1 F900 X156.184 Y151.234 E68.84577
G0 F2625 X156.891 Y151.234
G1 F900 X134.421 Y128.764 E69.90428
G0 F2625 X135.128 Y128.764
G1 F900 X157.598 Y151.234 E70.9628
G0 F2625 X158.305 Y151.234
G1 F900 X135.835 Y128.764 E72.02131
G0 F2625 X136.543 Y128.764
G1 F900 X159.012 Y151.234 E73.07981
G0 F2625 X159.719 Y151.234
G1 F900 X137.25 Y128.764 E74.1383
G0 F2625 X137.957 Y128.764
G1 F900 X160.426 Y151.234 E75.19679
G0 F2625 X161.134 Y151.234
